apps/expo/assets/logo-2.svg

<svg width="152" height="58" viewBox="0 0 152 58" fill="none" xmlns="http://www.w3.org/2000/svg">
<path d="M133.953 35.2619L134.3 35.7478L134.885 35.6243L142.069 34.1056L143.357 33.8333L142.651 32.7226C142.414 32.3511 142.211 31.9637 142.04 31.5599C141.924 31.1668 141.859 30.6895 141.859 30.1168C141.859 28.8915 142.119 27.8963 142.598 27.0926C143.173 26.1963 143.876 25.3671 144.709 24.6054C145.662 23.7712 146.594 22.8786 147.505 21.928C148.471 20.9199 149.264 19.7492 149.887 18.4231C150.586 17.019 150.913 15.3352 150.913 13.4108C150.913 11.1318 150.394 9.11205 149.321 7.3891C148.302 5.65404 146.898 4.29492 145.123 3.32263C143.339 2.34574 141.336 1.86697 139.135 1.86697C136.789 1.86697 134.642 2.34118 132.711 3.30681L132.711 3.30678L132.703 3.31046C130.798 4.28417 129.272 5.70627 128.135 7.55944L128.131 7.56593L128.127 7.57248C127.014 9.45586 126.482 11.7081 126.482 14.2869V15.07L127.256 15.189L134.849 16.3573L135.901 16.519V15.4552C135.901 14.0479 136.233 12.8589 136.869 11.8547L136.869 11.8547L136.876 11.8433C137.484 10.8518 138.188 10.4682 139.018 10.4682C139.757 10.4682 140.163 10.6859 140.413 10.9931C140.692 11.3363 140.91 11.9533 140.91 13.0019C140.91 14.0965 140.656 15.0123 140.177 15.782C139.634 16.6132 138.959 17.4358 138.147 18.2488C137.272 19.0844 136.399 19.9969 135.529 20.9856L135.528 20.9875C134.648 21.993 133.902 23.157 133.285 24.4723C132.63 25.8704 132.323 27.5294 132.323 29.4158C132.323 31.7296 132.84 33.7033 133.953 35.2619ZM133.024 47.4069V48.3196H133.936H141.881H142.793V47.4069V38.645V37.7323H141.881H133.936H133.024V38.645V47.4069Z" stroke="#C6FF29" stroke-width="1.82539"/>
<path d="M100.383 47.4068V4.0062L108.561 3.01318V26.9039L116.272 14.5205H124.508L116.622 27.0208L125.15 45.9465L117.907 48.3414L111.365 33.5046L108.561 37.7103V47.4068H100.383Z" fill="#C6FF29"/>
<path d="M72.5371 56.4609L73.939 49.9187C74.3674 50.1134 74.7763 50.2497 75.1657 50.3276C75.594 50.4055 76.0419 50.4444 76.5092 50.4444C77.7553 50.4444 78.7678 50.055 79.5466 49.2761C80.3644 48.4973 80.7733 47.3485 80.7733 45.8298V44.4279L72.7708 15.1048L81.0069 13.9949L85.5047 35.1987L90.1193 14.4622H97.2456L89.3015 46.9981C88.4838 50.3081 87.0819 52.8393 85.0958 54.5917C83.1098 56.3441 80.4812 57.2203 77.2101 57.2203C76.1976 57.2203 75.3604 57.1618 74.6984 57.045C74.0364 56.9282 73.3159 56.7335 72.5371 56.4609Z" fill="#C6FF29"/>
<path d="M54.7284 48.1661C51.3794 48.1661 48.9066 46.6474 47.31 43.61C45.7523 40.5725 44.9735 36.4252 44.9735 31.1681C44.9735 27.9748 45.324 25.0737 46.0249 22.4646C46.7259 19.8555 47.8163 17.7916 49.296 16.2728C50.8148 14.7152 52.7619 13.9363 55.1373 13.9363C56.656 13.9363 57.9216 14.2868 58.9341 14.9878C59.9466 15.6498 60.7449 16.5065 61.329 17.5579V4.0062L69.5068 3.01318V46.9395L62.03 47.8741V43.0258C61.4848 44.5835 60.6086 45.8296 59.4014 46.7642C58.1942 47.6988 56.6366 48.1661 54.7284 48.1661ZM57.4154 41.8576C58.8952 41.8576 59.9077 41.1177 60.4528 39.6379C61.037 38.1581 61.329 36.1721 61.329 33.6798V28.7147C61.329 26.2614 61.0564 24.2364 60.5113 22.6398C59.9661 21.0432 58.9925 20.2449 57.5906 20.2449C56.033 20.2449 54.9231 21.2574 54.2611 23.2824C53.638 25.2684 53.3265 27.8775 53.3265 31.1096C53.3265 34.3808 53.638 36.9899 54.2611 38.9369C54.9231 40.884 55.9746 41.8576 57.4154 41.8576Z" fill="#C6FF29"/>
<path d="M8.23618 47.4068L0 4.06467L8.64507 2.95483L13.4933 34.7313L13.7854 32.57L17.9911 3.83102H26.4609L30.6666 35.3738L36.2742 3.59737H43.459L34.8723 47.4068H26.1104L21.9047 16.2145L17.407 47.4068H8.23618Z" fill="#C6FF29"/>
</svg>

<svg xmlns="http://www.w3.org/2000/svg" width="152" height="58" fill="none" viewBox="0 0 152 58">
    <path stroke="#C6FF29" stroke-width="1.825" d="m133.953 35.262.347.486.585-.124 7.184-1.518 1.288-.273-.706-1.11a8 8 0 0 1-.611-1.163c-.116-.393-.181-.87-.181-1.443 0-1.226.26-2.22.739-3.024a12.6 12.6 0 0 1 2.111-2.488 44 44 0 0 0 2.796-2.677 13 13 0 0 0 2.382-3.505c.699-1.404 1.026-3.088 1.026-5.012 0-2.28-.519-4.299-1.592-6.022a10.8 10.8 0 0 0-4.198-4.066c-1.784-.977-3.787-1.456-5.988-1.456-2.346 0-4.493.474-6.424 1.44l-.008.003c-1.905.974-3.431 2.396-4.568 4.25l-.004.006-.004.006c-1.113 1.884-1.645 4.136-1.645 6.715v.783l.774.119 7.593 1.168 1.052.162v-1.064c0-1.407.332-2.596.968-3.6l.007-.012c.608-.991 1.312-1.375 2.142-1.375.739 0 1.145.218 1.395.525.279.343.497.96.497 2.009 0 1.095-.254 2.01-.733 2.78a15.5 15.5 0 0 1-2.03 2.467 44 44 0 0 0-2.618 2.737l-.001.002c-.88 1.005-1.626 2.169-2.243 3.484-.655 1.398-.962 3.057-.962 4.944 0 2.314.517 4.287 1.63 5.846Zm-.929 12.145v.913h9.769V37.732h-9.769z"/>
    <path fill="#C6FF29" d="M100.383 47.407v-43.4l8.178-.994v23.89l7.711-12.382h8.236l-7.886 12.5 8.528 18.926-7.243 2.394-6.542-14.836-2.804 4.205v9.697zM72.537 56.46l1.402-6.541q.642.29 1.227.409.642.117 1.343.116 1.87 0 3.038-1.168 1.226-1.169 1.226-3.446v-1.402l-8.002-29.323 8.236-1.11 4.498 21.204 4.614-20.737h7.127l-7.944 32.536q-1.227 4.965-4.206 7.594-2.98 2.628-7.886 2.628-1.519 0-2.512-.175a14 14 0 0 1-2.16-.584m-17.81-8.295q-5.023 0-7.418-4.556-2.337-4.557-2.337-12.442 0-4.79 1.052-8.703 1.05-3.914 3.271-6.192 2.279-2.337 5.841-2.337 2.279 0 3.797 1.052a7.2 7.2 0 0 1 2.395 2.57V4.006l8.178-.993V46.94l-7.477.934v-4.848q-.817 2.336-2.629 3.738-1.81 1.402-4.673 1.402m2.687-6.308q2.22 0 3.038-2.22.876-2.22.876-5.958v-4.965q0-3.681-.818-6.075t-2.92-2.395q-2.337 0-3.33 3.037-.934 2.98-.934 7.828 0 4.906.934 7.827.993 2.92 3.154 2.92m-49.179 5.55L0 4.065l8.645-1.11 4.848 31.776.292-2.161 4.206-28.739h8.47l4.206 31.543 5.607-31.777h7.185l-8.587 43.81H26.11l-4.205-31.192-4.498 31.192z"/>
</svg>
